X:1
T:Mit Fried’ und Freud’, 85.84.77
T:Mit Fried’ und Freud’, 85.84.77
T:Geistliches Gesangbüchlein (Wittenber
T:Public Domain Courtesy of the Cyber Hymnal™
C:Geistliches Gesangbüchlein (Wittenber
Z:Public Domain
Z:Courtesy of the Cyber Hymnal™
%%score ( 1 2 ) ( 3 4 )
L:1/8
Q:1/4=115
M:none
K:C
V:1 treble 
V:2 treble 
V:3 bass 
V:4 bass 
V:1
 [A,D]4 [DA]2 [EA]2 [EG]2 [Dd]2 [Ec]2 [EB]2 [^CA]4 | [Ec]4 [FA]2 [Ec]2 [EB]4 [^CA]4 | %2
 z [FA] [Gc]2 [GB]2 [Gc]2 [FA]2 ([EG][DF]) E2 [A,D]4 | [CA]3 [CG] ([CF]2 [B,D]2) C4 | %4
 (A3 G) [DF]2 (c3 _B) [=CA]2 (GF) [DG]2 [^CA]4 | %5
 z [CG] [CF]2 [B,D]2 [A,C]2 [A,F]2 ([^CE][B,D] [CE]2) D4 |] %6
V:2
 x20 | x16 | x12 (D^C) x4 | x8 C4 | ^C4 C4 D2 x10 | x14 D4 |] %6
V:3
 [D,F,]4 [D,F,]2 [A,,C]2 [E,B,]2 [F,A,]2 [E,A,]2 [E,^G,]2 [A,,A,]4 | %1
 [A,C]4 [F,C]2 [C,A,]2 (A,2 ^G,2) [A,,A,]4 | %2
 z [F,C] [C,E]2 [G,D]2 [E,C]2 [F,C]2 ([C,C][D,A,]) [A,,A,]2 [D,^F,]4 | %3
 F,3 [C,E,] ([F,,A,]2 [G,,G,]2) [C,E,]4 | F,4 [D,A,]2 [E,G,]4 F,2 [_B,,G,]2 [B,,D,]2 [A,,E,]4 | %5
 z [C,E,] [F,,A,]2 [G,,G,]2 [A,,E,]2 [D,F,]2 [A,,A,]4 [D,^F,]4 |] %6
V:4
 x20 | x8 E,4 x4 | x18 | F,3 x9 | F,4 x2 F,2 x12 | x18 |] %6

